static/images/onboarding/left-arrow.svg

<svg width="24" height="24" viewBox="0 0 24 24" fill="none" xmlns="http://www.w3.org/2000/svg">
<path fill-rule="evenodd" clip-rule="evenodd" d="M3.99995 10.8074L9.20971 5.59767C9.63777 5.1945 10.2384 5.08665 10.7544 5.31064C11.2704 5.53296 11.5889 6.02408 11.5889 6.59317V8.56922L18.8395 9.57633C19.9494 9.72068 20.7939 10.6863 20.7939 11.8228C20.7939 11.9207 20.7873 12.0203 20.7757 12.1182C20.6148 13.1435 19.815 13.9349 18.8312 14.0594L11.5889 15.093V16.9828C11.5889 17.5585 11.2505 18.0712 10.7278 18.2886C10.2019 18.5059 9.61952 18.3881 9.20971 17.9783L3.99995 12.7685C3.74279 12.5097 3.6001 12.1613 3.6001 11.788C3.6001 11.4147 3.74279 11.0663 3.99995 10.8074Z" fill="white"/>
</svg>

<svg width="24" height="24" fill="none" xmlns="http://www.w3.org/2000/svg"><path fill-rule="evenodd" clip-rule="evenodd" d="m4 10.807 5.21-5.21a1.419 1.419 0 0 1 1.544-.286c.516.222.835.713.835 1.282V8.57l7.25 1.007a2.264 2.264 0 0 1 1.937 2.542c-.161 1.025-.961 1.817-1.945 1.941l-7.242 1.034v1.89c0 .575-.338 1.088-.861 1.306-.526.217-1.108.1-1.518-.31L4 12.768a1.381 1.381 0 0 1-.4-.981c0-.373.143-.722.4-.98Z" fill="#fff"/></svg>
